X: 23009
T: Last Inn, The
R: reel
M: 4/4
K: Eminor
|:EB Bc ecA|F2 DFG AB|EB Bc A2B|1 AF FA B2G:|2 AF FA B2A||
|:B2 ef gag|f2e fB BA|B2e fg af|1 ecA GA Bc:|2 ecA BA GF||

